X:8834
T:La Belle. GS.034
T:Davy Davy Knick Knack,aka. GS.034
M:2/4
L:1/16
Q:100
S:George Spencer m/s, Leeds,1831
R:Misc.
O:England
A:Leeds
H:1831
Z:vmp.Cherri Graebe
K:G major
z|GFGA B2B2 | GFGA B2B2 | dcBc A2A2 | dcBc A2A2 | GFGA B2B2 |! GFGA B2B2
 |
 dcBc A2B2 | G6 :||:
Bc | dcBc B2B2 |! {f}g4 d4 | dcBc A2A2 | dcBc A2A2 | dcBc B2d2 | {f}g4 d
4 | dcBc A2B2 | G4 c2 :||


